X:109
%%etbk:tnset id:38,pos:3,rep:3x,ant:
%%etbk:tnset id:288,pos:2,rep:3x,ant:
%%etbk:wsite http://www.thesession.org/tunes/display/430
%%etbk:pldat 2015-09-09T16:53,2015-09-03T16:56,2015-09-01T16:41,2015-08-30T14:58,2015-08-06T17:58,2015-08-05T16:53,2015-08-04T17:00,2015-08-03T18:46,2015-07-27T18:29,2015-07-22T17:05,2015-06-26T17:12,2015-06-18T18:21,2015-06-16T16:29,2015-05-27T18:30,2015-05-07T18:44,2015-04-16T19:23,2015-04-15T16:47,2015-04-13T19:03,2015-04-12T11:31,2015-04-11T14:44,2015-04-08T17:09,2015-03-19T19:20,2015-03-18T17:21,2015-03-16T19:49,2015-03-15T14:32,2015-03-10T18:24,2015-02-22T16:07,2015-02-21T17:12,2015-02-18T16:54,2015-02-17T17:07,2015-02-14T14:19,2015-02-13T18:49,2015-02-10T16:45,2015-02-03T17:23,2015-01-29T18:52,2015-01-21T18:26,2015-01-14T15:41,2015-01-13T16:59,2015-01-12T19:15,2015-01-10T15:27,2015-01-08T18:46,2015-01-07T17:10,2015-01-06T18:38,2015-01-05T19:21,2014-03-19T19:22,2014-01-02T11:30,2013-12-28T14:33,2013-12-27T17:04,2013-12-11T19:01,2013-11-13T15:53
T: Sporting Paddy
Z: Piano Box Version by Martin Fleischmann
H: Created 2013-02-19 /  Last Modified 2013-11-13
M: 4/4
L: 1/8
R: reel
K: Ador
|: "am"!1!E!3!AAA !2!GABG | !1!E!3!AAB !2!Gz!3!A!2!G | !1!E2!2!AA !1!GA!3!B!4!d |1 "em"!2!ed!4!ge !1!d!2!B!1!A!2!G :|2 "em"!2!edge !1!d2ef ||
"am" !4!g!1!e!2!e!1!e !2!g!2!ede | !4!g!1!e !3!(3e!2!e!1!e !4!a2ba | !3!g!1!e!2!e!1!e !4!ge!1!d2 | "em"!2!efge !1!d2ef |
 "am"!4!g!1!e!2!e!1!e !2!g!2!ede | !4!g!1!e !3!(3e!2!e!1!e !4!a2ga | !5!bgab !3!g!2!e!1!d2 | "em"!2!efge !1!d!2!B!1!A!2!G ||


